X:168
T:The Gent's Walk
B:Terry "Cuz" Teahan "Sliabh Luachra on Parade" 1980
Z:Patrick Cavanagh
M:4/4
L:1/8
R:Reel
K:D
GF |: E/F/E B2 E/F/E B2 | E/F/E BF AFD2 | E/F/E B2 E/F/E Bc | dcdB AF D2 :| 
|: BF e/F/B BABc | dcdB AFD2 | BF e/F/d BABc | dBAF E2E2 :|| 

